Resources/Public/Icons/symbols/hashtag-black.svg

<?xml version="1.0" encoding="ISO-8859-1" standalone="no"?>
<!DOCTYPE svg PUBLIC "-//W3C//DTD SVG 1.1//EN" "http://www.w3.org/Graphics/SVG/1.1/DTD/svg11.dtd">
<svg xmlns="http://www.w3.org/2000/svg" xmlns:xlink="http://www.w3.org/1999/xlink" xml:space="preserve" width="16px" height="16px" viewBox="0 0 16 16" zoomAndPan="disable" preserveAspectRatio="xmaxYmax">
<path style="fill:#000" d="m 9.8840653,5.728027 -3.0760236,0 -0.6921051,4.327568 3.0760231,0 0.6921056,-4.327568 z m 2.1532157,5.950406 -0.615205,3.89481 -3.0760227,0 0.6152046,-3.89481 -3.0760232,0 -0.6152046,3.89481 -3.0760231,0 0.6152046,-3.89481 -2.69152032,0 0.23070164,-1.622838 2.69152038,0 0.6921052,-4.327568 -2.6915203,0 0.2307019,-1.6228377 2.6915202,0 0.5767543,-3.67843218 3.0760232,0 -0.5767544,3.67843218 3.0760236,0 0.576755,-3.67843218 3.076022,0 -0.576754,3.67843218 2.691519,0 -0.230701,1.6228377 -2.691519,0 -0.692107,4.327568 2.691522,0 -0.230704,1.622838 -2.691519,0 z"/>
</svg>

<svg xmlns="http://www.w3.org/2000/svg" width="16" height="16" zoomAndPan="disable" preserveAspectRatio="xmaxYmax"><path d="M9.884 5.728H6.808l-.692 4.328h3.076l.692-4.328zm2.153 5.95l-.615 3.895H8.346l.615-3.895H5.886l-.615 3.895H2.194l.615-3.895H.117l.23-1.622H3.04l.692-4.328H1.04l.23-1.623h2.693L4.54.427h3.075L7.04 4.105h3.075l.577-3.678h3.076l-.577 3.678h2.692l-.23 1.623H12.96l-.692 4.328h2.692l-.23 1.622h-2.693z"/></svg>
